app/dist/common/images/severfield-plc.svg

<svg height="18" viewBox="0 0 18 18" width="18" xmlns="http://www.w3.org/2000/svg"><path d="m0 0h18v18h-18z" fill="#f0f3fa"/><g fill="#394aa9"><path d="m4 11.62v-4.62h2.98v-1.45l1.8-1.55h2.26l2.96 2.4v4.6h-3v1.38l-1.8 1.62h-2.4z" opacity=".5"/><path d="m4 7v.54l3 2.46v-3zm10 4v-.54l-3-2.46v3zm-3 1h-2.2l-1.8 1.6v.4h2.22l1.78-1.63z"/></g></svg>

<!-- by TradingView --><svg width="18" height="18" viewBox="0 0 18 18" xmlns="http://www.w3.org/2000/svg"><path fill="#F0F3FA" d="M0 0h18v18H0z"/><path opacity=".5" d="M4 11.62V7h2.98V5.55L8.78 4h2.26L14 6.4V11h-3v1.38L9.2 14H6.8L4 11.62Z" fill="#394AA9"/><path d="M4 7v.54L7 10V7H4ZM14 11v-.54L11 8v3h3ZM11 12H8.8L7 13.6v.4h2.22L11 12.37V12Z" fill="#394AA9"/></svg>
